X: 515
T: The Dead March
C:Bill Monroe
B: jims roots
M:4/4
L:1/8
Q: 1/4=100
K:A
V:1 
|:"A"{^d}[e4e4] f=g2 g | f=gec "D"d3 f | "A"ec (3efg a3 f | afed "E"(3cdc "A"A2:|
"E"([de}[ee]) ee e2 ee  | edBA G2 EF | "A"A2 AB c2 cd | "E"efed "A"(3cdc A ||
|: "A"[E2A,2] A2 [e3c3]A | BcBA "E"G2 EF | "A"A2 AB c2 cd | "E"efed "A"(3cdc A :|
% abcbook-tune_id 6298c2457deef149c6eef764


% abcbook-boost 0
% abcbook-tablature 
% abcbook-transpose 
% abcbook-lastupdated 1654178373960
% abcbook-soundfonts 
% abcbook-repeats 1


